packages/icons/web/ec_large.svg

<svg width="24" height="24" viewBox="0 0 24 24" fill="none" xmlns="http://www.w3.org/2000/svg">
<mask id="mask0" mask-type="alpha" maskUnits="userSpaceOnUse" x="2" y="3" width="20" height="19">
<path d="M21.6083 3H2.39167C2.17536 3 2 3.17536 2 3.39167V20.9417C2 21.158 2.17536 21.3333 2.39167 21.3333H21.6083C21.8246 21.3333 22 21.158 22 20.9417V3.39167C22 3.17536 21.8246 3 21.6083 3Z" fill="white"/>
</mask>
<g mask="url(#mask0)">
<path d="M21.6083 3H2.39167C2.17536 3 2 3.17536 2 3.39167V20.9417C2 21.158 2.17536 21.3333 2.39167 21.3333H21.6083C21.8246 21.3333 22 21.158 22 20.9417V3.39167C22 3.17536 21.8246 3 21.6083 3Z" stroke="#01509B" stroke-width="1.56"/>
</g>
<g opacity="0.9">
<path opacity="0.9" d="M19.3211 19.034H11.5205C10.881 19.034 10.4474 18.4066 10.4474 17.9593C10.4474 17.5446 10.4588 6.55575 10.4474 6.13046C10.4368 5.70517 11.1951 5.04517 11.7052 5.04517C12.2137 5.05575 19.3096 5.04517 19.3096 5.04517V10.5863H15.1727V7.96046C15.1727 7.96046 14.9018 7.94987 14.5552 7.96046C14.3811 7.97193 14.089 8.14223 14.089 8.4184C14.0785 8.99193 14.089 15.6308 14.089 15.801C14.089 15.9599 14.1972 16.1734 14.5552 16.184C14.9124 16.2052 15.1833 16.184 15.1833 16.184V13.3428H19.322V19.0349" fill="#E11A1D"/>
<path opacity="0.9" d="M9.1154 7.93843C9.1154 7.93843 8.80137 7.91725 8.51901 7.92784C8.22697 7.93843 7.97804 8.21549 7.97804 8.38578V10.5873H9.1154V7.93843ZM5.60568 5.04519C6.46156 5.05578 12.7008 5.04519 12.7008 5.04519V13.3428L7.97716 13.3314V15.7667C7.97716 15.8099 8.09679 16.1717 8.51901 16.1928H9.10484V14.1396H12.7113L12.7008 19.0331H5.57225C5.57225 19.0331 4.4991 18.862 4.40234 17.842C4.41378 17.459 4.40234 6.29902 4.40234 6.10843C4.40234 5.92755 4.81489 5.04431 5.60568 5.04431V5.04519Z" fill="#00509B"/>
</g>
</svg>

<svg width="24" height="24" fill="none" xmlns="http://www.w3.org/2000/svg">
    <mask id="a" maskUnits="userSpaceOnUse" x="2" y="3" width="20" height="19">
        <path d="M21.608 3H2.392A.392.392 0 002 3.392v17.55c0 .216.175.391.392.391h19.216a.392.392 0 00.392-.391V3.392A.392.392 0 0021.608 3z" fill="#fff"/>
    </mask>
    <g mask="url(#a)">
        <path d="M21.608 3H2.392A.392.392 0 002 3.392v17.55c0 .216.175.391.392.391h19.216a.392.392 0 00.392-.391V3.392A.392.392 0 0021.608 3z" stroke="#01509B" stroke-width="1.56"/>
    </g>
    <g opacity=".9">
        <path opacity=".9" d="M19.321 19.034h-7.8c-.64 0-1.074-.627-1.074-1.075 0-.414.012-11.403 0-11.829-.01-.425.748-1.085 1.258-1.085.509.01 7.605 0 7.605 0v5.541h-4.137V7.96s-.271-.01-.618 0c-.174.012-.466.182-.466.458-.01.574 0 7.213 0 7.383 0 .159.108.372.466.383.357.021.628 0 .628 0v-2.841h4.139v5.692" fill="#E11A1D"/>
        <path opacity=".9" d="M9.115 7.938s-.314-.02-.596-.01c-.292.01-.541.287-.541.458v2.201h1.137V7.938zm-3.51-2.893c.857.01 7.096 0 7.096 0v8.298l-4.724-.012v2.436c0 .043.12.405.542.426h.586V14.14h3.606l-.01 4.893H5.572s-1.073-.171-1.17-1.191c.012-.383 0-11.543 0-11.734 0-.18.413-1.064 1.204-1.064v.001z" fill="#00509B"/>
    </g>
</svg>
